X:1
T:Wonderful Star, 10.10.10.10 D
T:Asa Hull, 1885
T:Wonderful Star, 10.10.10.10 D
T:Public Domain
C:Asa Hull, 1885
Z:Public Domain
%%score ( 1 2 ) ( 3 4 )
L:1/8
M:4/4
K:C
V:1 treble 
V:2 treble 
V:3 bass 
V:4 bass 
V:1
 C2 [CE][DF] [EG]>[D^F] [EG]2 | ([FA][Ac])[GB][FA] [EG]3 z | [FA]2 [FB][Fc] [Ec]>[EG] [EG]2 | %3
 [B,F]2 [CE]>[CE] [B,D]3 z | [CE]2 C[CE] [EG]>[^D^F] [EG]2 | [Gc]2 [Gd]>[Gd] [Ge]3 z | %6
 (dc)[GB][FA] [FA][EG][Ec][CE] | (G2 D)[B,E] C3 z | [EG]2 [CE][FA] [EG]>[^D^F] [EG] z | %9
 [Gc]2 [Gd]>[Gd] [Ge]3 z | (dc)[GB][FA] [EG]>[^D^F] [EG][EA] | [DB]2 [^FA]2 G3 z | %12
 [EG]2 [CE][FA] [EG]>[^D^F] [EG] z | [Gc]2 [Gd]>[Gd] [Ge]3 z | %14
 [Ad]>[Gc] ([GB][FA]) [EG]>[Ec] [Ge] z | [FG] [Fd]2 [Ge] [Ec]3 z |] %16
V:2
 C2 x6 | x8 | x8 | x8 | x2 C x5 | x8 | A2 x6 | B,3 C3 x2 | x8 | x8 | A2 x6 | x4 G3 x | x8 | x8 | %14
 x8 | x8 |] %16
V:3
 [C,E,]2 [C,G,][C,G,] [C,C]>[C,C] [C,C]2 | [F,C]2 [F,C][F,C] [C,C]3 z | %2
 [F,C]2 [F,C][F,A,] [C,G,]>[C,G,] [C,G,]2 | [D,G,]2 [C,G,]>[C,G,] [G,,G,]3 z | %4
 [C,G,]2 [C,E,][C,G,] [C,C]>[C,C] [C,C]2 | [E,C]2 [G,B,]>[G,B,] C3 z | %6
 [F,C]2 [F,C][F,C] [C,C][C,C][C,G,][C,G,] | (G,2 F,)G, [C,E,]3 z | %8
 [C,C]2 [C,G,][C,C] [C,C]>[C,C] [C,C] z | [E,C]2 [G,B,]>[G,B,] C3 z | %10
 [F,C]2 [F,C][F,C] [C,C]>[C,C] [C,C][C,G,] | [D,G,]2 [D,C]2 [G,,G,B,]3 z | %12
 [C,C]2 [C,G,][C,C] [C,C]>[C,C] [C,C] z | [E,C]2 [G,B,]>[G,B,] C3 z | %14
 [F,C]>[F,C] [F,C]2 [C,C]>[C,C] [C,C] z | [G,B,] [G,B,]2 [G,B,] [C,C]3 z |] %16
V:4
 x8 | x8 | x8 | x8 | x8 | x4 C3 x | x8 | G,2 G,,2 x4 | x8 | x4 C3 x | x8 | x8 | x8 | x4 C3 x | x8 | %15
 x8 |] %16

